packages/sights/assets/overlays/xsuH1g5T.svg

<svg width="500" height="375" viewBox="0 0 500 375" fill="none" xmlns="http://www.w3.org/2000/svg">
<path d="M489.238 121.968C489.238 121.968 487.049 108.758 477.309 122.518C467.549 137.089 459.774 152.894 454.189 169.518L328.839 263.998C328.839 263.998 346.568 213.998 322.108 206.668C322.108 206.668 273.798 187.868 226.568 301.598C226.568 301.598 219.688 323.598 218.568 336.918L214.648 342.168C214.648 342.168 162.338 352.948 83.9385 332.308C83.9385 332.308 48.6285 308.458 16.5285 247.468C16.5285 247.468 1.23849 202.468 14.2385 172.408L19.7385 166.068C19.7385 166.068 16.2985 155.998 22.2585 148.168C28.2185 140.338 57.0385 104.828 163.738 81.2881C163.738 81.2881 212.658 39.0981 238.948 28.0981C238.948 28.0981 292.608 8.09809 422.388 19.5281C422.388 19.5281 453.798 22.5281 463.208 30.3081C463.208 30.3081 482.469 69.0581 482.469 69.7481C482.469 70.4381 491.548 76.8881 491.548 76.8881C491.548 76.8881 491.298 92.8281 490.258 96.9481L489.958 117.858C489.958 117.858 487.208 135.588 483.538 140.628" stroke="white" stroke-miterlimit="10"/>
<path d="M415.028 105.308C415.028 105.308 387.688 110.208 363.028 109.138C363.028 109.138 345.748 113.138 345.448 113.578C345.148 114.018 344.838 118.928 345.448 122.288C345.448 122.288 360.578 115.558 374.648 115.408C374.648 115.408 407.968 113.408 410.568 111.898C414.438 107.283 417.117 101.789 418.368 95.8981L416.838 93.7581C416.838 93.7581 395.278 83.9681 387.948 84.5781C387.948 84.5781 377.698 84.4281 372.348 89.5781L363.348 97.3681L363.968 100.128L366.108 108.688" stroke="white" stroke-miterlimit="10"/>
<path d="M237.119 31.4881C237.119 31.4881 335.869 29.3481 374.119 36.3781C374.119 36.3781 331.619 99.6681 328.259 111.588L319.689 115.588C319.689 115.588 202.289 118.648 155.969 89.7581C155.969 89.7581 151.379 84.5381 162.969 81.5281" stroke="white" stroke-miterlimit="10"/>
<path d="M19.2688 154.668C19.2688 154.668 35.0988 188.788 92.4288 208.968L193.319 211.028L224.549 205.298L231.879 205.528V211.028C231.879 211.028 211.249 240.838 206.879 243.128C206.879 243.128 175.239 252.068 115.879 251.618C115.879 251.618 87.8788 262.848 86.9888 263.308C86.0988 263.768 79.1888 263.308 79.1888 263.308C79.1888 263.308 26.8488 228.228 13.5488 197.498C13.5488 197.498 16.0688 180.988 17.6788 175.948L16.1088 170.278" stroke="white" stroke-miterlimit="10"/>
<path d="M92.429 208.968C92.429 210.568 90.3691 216.968 90.3691 216.968L115.819 251.598" stroke="white" stroke-miterlimit="10"/>
<path d="M12.3991 217.988C12.3991 217.988 32.5491 248.098 48.7891 258.038L49.4691 259.788L51.9591 279.018L51.3791 280.738C51.3791 280.738 17.7891 245.168 15.0391 236.248L12.0391 219.338L12.3991 217.988Z" stroke="white" stroke-miterlimit="10"/>
<path d="M51.168 272.888C51.168 272.888 101.547 313.068 104.427 317.808C104.427 317.808 187.347 342.718 222.087 317.808" stroke="white" stroke-miterlimit="10"/>
<path d="M345.549 113.578C345.549 113.578 375.159 35.8478 399.229 32.1678C399.229 32.1678 432.229 22.5378 452.889 33.7678C452.889 33.7678 466.419 65.2378 468.709 70.9478L415.429 93.0478" stroke="white" stroke-miterlimit="10"/>
<path d="M319.658 115.558L313.238 136.348C313.238 136.348 197.058 189.818 181.168 210.778" stroke="white" stroke-miterlimit="10"/>
<path d="M311.449 305.003C326.152 276.06 327.077 247.013 313.517 240.124C299.956 233.236 277.044 251.114 262.342 280.057C247.639 309 246.713 338.048 260.274 344.936C273.834 351.825 296.746 333.946 311.449 305.003Z" stroke="white" stroke-miterlimit="10"/>
<path d="M478.548 120.828C478.548 120.828 488.088 126.108 482.548 145.828C482.548 145.828 475.548 176.098 459.768 195.058L455.258 196.168L435.997 191.118L432.938 185.578" stroke="white" stroke-miterlimit="10"/>
<path d="M218.549 336.918L242.319 355.408C242.319 355.408 253.319 361.988 264.639 357.548C264.639 357.548 325.789 333.858 328.539 243.358C328.539 243.358 326.249 228.068 315.089 222.718L290.499 212.338" stroke="white" stroke-miterlimit="10"/>
<path d="M334.27 241.168L458.64 157.508" stroke="white" stroke-miterlimit="10"/>
<path d="M421.318 28.5283C421.318 28.5283 428.688 62.3683 428.978 87.4383L432.978 91.5583L436.758 109.168C436.758 109.168 430.188 154.118 426.208 165.888L425.808 179.618" stroke="white" stroke-miterlimit="10"/>
</svg>

<svg width="500" height="375" fill="none" xmlns="http://www.w3.org/2000/svg"><path d="M489.238 121.968s-2.189-13.21-11.929.55a197.437 197.437 0 0 0-23.12 47l-125.35 94.48s17.729-50-6.731-57.33c0 0-48.31-18.8-95.54 94.93 0 0-6.88 22-8 35.32l-3.92 5.25s-52.31 10.78-130.71-9.86c0 0-35.31-23.85-67.41-84.84 0 0-15.29-45-2.29-75.06l5.5-6.34s-3.44-10.07 2.52-17.9c5.96-7.83 34.78-43.34 141.48-66.88 0 0 48.92-42.19 75.21-53.19 0 0 53.66-20 183.44-8.57 0 0 31.41 3 40.82 10.78 0 0 19.261 38.75 19.261 39.44 0 .69 9.079 7.14 9.079 7.14s-.25 15.94-1.29 20.06l-.3 20.91s-2.75 17.73-6.42 22.77" stroke="#fff" stroke-miterlimit="10"/><path d="M415.028 105.308s-27.34 4.9-52 3.83c0 0-17.28 4-17.58 4.44-.3.44-.61 5.35 0 8.71 0 0 15.13-6.73 29.2-6.88 0 0 33.32-2 35.92-3.51a36.799 36.799 0 0 0 7.8-16l-1.53-2.14s-21.56-9.79-28.89-9.18c0 0-10.25-.15-15.6 5l-9 7.79.62 2.76 2.14 8.56M237.119 31.488s98.75-2.14 137 4.89c0 0-42.5 63.29-45.86 75.21l-8.57 4s-117.4 3.06-163.72-25.83c0 0-4.59-5.22 7-8.23M19.269 154.668s15.83 34.12 73.16 54.3l100.89 2.06 31.23-5.73 7.33.23v5.5s-20.63 29.81-25 32.1c0 0-31.64 8.94-91 8.49 0 0-28 11.23-28.89 11.69-.89.46-7.8 0-7.8 0s-52.34-35.08-65.64-65.81c0 0 2.52-16.51 4.13-21.55l-1.57-5.67" stroke="#fff" stroke-miterlimit="10"/><path d="M92.429 208.968c0 1.6-2.06 8-2.06 8l25.45 34.63M12.4 217.988s20.15 30.11 36.39 40.05l.68 1.75 2.49 19.23-.58 1.72s-33.59-35.57-36.34-44.49l-3-16.91.36-1.35ZM51.168 272.888s50.379 40.18 53.259 44.92c0 0 82.92 24.91 117.66 0M345.549 113.578s29.61-77.73 53.68-81.41c0 0 33-9.63 53.66 1.6 0 0 13.53 31.47 15.82 37.18l-53.28 22.1M319.658 115.558l-6.42 20.79s-116.18 53.47-132.07 74.43M311.449 305.003c14.703-28.943 15.628-57.99 2.068-64.879-13.561-6.888-36.473 10.99-51.175 39.933-14.703 28.943-15.629 57.991-2.068 64.879 13.56 6.889 36.472-10.99 51.175-39.933ZM478.548 120.828s9.54 5.28 4 25c0 0-7 30.27-22.78 49.23l-4.51 1.11-19.261-5.05-3.059-5.54" stroke="#fff" stroke-miterlimit="10"/><path d="m218.549 336.918 23.77 18.49s11 6.58 22.32 2.14c0 0 61.15-23.69 63.9-114.19 0 0-2.29-15.29-13.45-20.64l-24.59-10.38M334.27 241.168l124.37-83.66M421.318 28.528s7.37 33.84 7.66 58.91l4 4.12 3.78 17.61s-6.57 44.95-10.55 56.72l-.4 13.73" stroke="#fff" stroke-miterlimit="10"/></svg>
